public/images/icons/src/Add.svg

<?xml version="1.0" encoding="utf-8"?>
<!-- Generated by IcoMoon.io -->
<!DOCTYPE svg PUBLIC "-//W3C//DTD SVG 1.1//EN" "http://www.w3.org/Graphics/SVG/1.1/DTD/svg11.dtd">
<svg version="1.1" xmlns="http://www.w3.org/2000/svg" xmlns:xlink="http://www.w3.org/1999/xlink" width="32" height="32" viewBox="0 0 32 32">
<path fill="#444444" d="M13.867 26.667h4.267v-21.333h-4.267v21.333zM5.333 13.867v4.267h21.333v-4.267h-21.333z"></path>
</svg>

<?xml version="1.0" encoding="utf-8"?> <!-- Generator: IcoMoon.io --> <!DOCTYPE svg PUBLIC "-//W3C//DTD SVG 1.1//EN" "http://www.w3.org/Graphics/SVG/1.1/DTD/svg11.dtd"> <svg width="32" height="32" viewBox="0 0 32 32" version="1.1" xmlns="http://www.w3.org/2000/svg" xmlns:xlink="http://www.w3.org/1999/xlink" xmlns:sketch="http://www.bohemiancoding.com/sketch/ns" fill="#000000"> <g><path d="M 13.867,26.667 L 18.133,26.667 L 18.133,5.333 L 13.867,5.333 L 13.867,26.667 Z M 13.867,26.667M 5.333,13.867 L 5.333,18.133 L 26.667,18.133 L 26.667,13.867 L 5.333,13.867 Z M 5.333,13.867"></path></g></svg>
